X: 19
T: Christina
M:4/4
R:dance
C: Naomi Alexamder
L:1/8
Z:Alf Warnock - alf0@rogers.com
K:F
AB|"F"c2c2 "Bb"dcBd|"F"c2F4GA|"Bb"B2A2 G2F2|"C"E2c4AB|
"F"c2c2 "Bb"dcBd|"F"c2F4GA|"Bb"B2A2 "C"G3A|"F"F6:|
EF|"C"G2C2 F2G2|"F"A4 A4| "Dm"d2D2 G2A2|
"Gm"B6AB|"F"c2de "Bb"f2ed|"F"c2A2 F2A2|
[1 "Bb"B2d2 c2A2|"C"G6EF:|[2 "Bb"B2d2 "C"c2E2|"F"F6AB|]
